img/filter.svg

<svg width="40" height="40" viewBox="0 0 40 40" fill="none" xmlns="http://www.w3.org/2000/svg">
<path d="M6.25 17.4999C5.91848 17.4999 5.60054 17.3682 5.36612 17.1338C5.1317 16.8994 5 16.5815 5 16.2499V6.25244C5 5.92092 5.1317 5.60298 5.36612 5.36856C5.60054 5.13414 5.91848 5.00244 6.25 5.00244H16.25C16.5815 5.00244 16.8995 5.13414 17.1339 5.36856C17.3683 5.60298 17.5 5.92092 17.5 6.25244V16.2499C17.5 16.5815 17.3683 16.8994 17.1339 17.1338C16.8995 17.3682 16.5815 17.4999 16.25 17.4999H6.25ZM23.75 17.4999C23.4185 17.4999 23.1005 17.3682 22.8661 17.1338C22.6317 16.8994 22.5 16.5815 22.5 16.2499V6.25244C22.5 5.92092 22.6317 5.60298 22.8661 5.36856C23.1005 5.13414 23.4185 5.00244 23.75 5.00244H33.7475C34.079 5.00244 34.397 5.13414 34.6314 5.36856C34.8658 5.60298 34.9975 5.92092 34.9975 6.25244V16.2499C34.9975 16.5815 34.8658 16.8994 34.6314 17.1338C34.397 17.3682 34.079 17.4999 33.7475 17.4999H23.75ZM6.25 34.9999C5.91848 34.9999 5.60054 34.8682 5.36612 34.6338C5.1317 34.3994 5 34.0815 5 33.7499V23.7499C5 23.4184 5.1317 23.1005 5.36612 22.8661C5.60054 22.6316 5.91848 22.4999 6.25 22.4999H16.25C16.5815 22.4999 16.8995 22.6316 17.1339 22.8661C17.3683 23.1005 17.5 23.4184 17.5 23.7499V33.7499C17.5 34.0815 17.3683 34.3994 17.1339 34.6338C16.8995 34.8682 16.5815 34.9999 16.25 34.9999H6.25ZM23.75 34.9999C23.4185 34.9999 23.1005 34.8682 22.8661 34.6338C22.6317 34.3994 22.5 34.0815 22.5 33.7499V23.7499C22.5 23.4184 22.6317 23.1005 22.8661 22.8661C23.1005 22.6316 23.4185 22.4999 23.75 22.4999H33.7475C34.079 22.4999 34.397 22.6316 34.6314 22.8661C34.8658 23.1005 34.9975 23.4184 34.9975 23.7499V33.7499C34.9975 34.0815 34.8658 34.3994 34.6314 34.6338C34.397 34.8682 34.079 34.9999 33.7475 34.9999H23.75Z" fill="#5C0C70"/>
</svg>

<svg width="40" height="40" fill="none" xmlns="http://www.w3.org/2000/svg"><path d="M6.25 17.5A1.25 1.25 0 0 1 5 16.25V6.252a1.25 1.25 0 0 1 1.25-1.25h10a1.25 1.25 0 0 1 1.25 1.25v9.998a1.25 1.25 0 0 1-1.25 1.25h-10Zm17.5 0a1.25 1.25 0 0 1-1.25-1.25V6.252a1.25 1.25 0 0 1 1.25-1.25h9.998a1.25 1.25 0 0 1 1.25 1.25v9.998a1.25 1.25 0 0 1-1.25 1.25H23.75ZM6.25 35A1.25 1.25 0 0 1 5 33.75v-10a1.25 1.25 0 0 1 1.25-1.25h10a1.25 1.25 0 0 1 1.25 1.25v10A1.25 1.25 0 0 1 16.25 35h-10Zm17.5 0a1.25 1.25 0 0 1-1.25-1.25v-10a1.25 1.25 0 0 1 1.25-1.25h9.998a1.25 1.25 0 0 1 1.25 1.25v10a1.25 1.25 0 0 1-1.25 1.25H23.75Z" fill="#5C0C70"/></svg>
